X:1
T:Title
%%score { ( 1 4 ) | ( 2 3 ) }
L:1/8
M:4/4
K:Bb
V:1 treble nm="Grand Piano"
V:4 treble 
V:2 bass 
V:3 bass 
V:1
 z4 z2[Q:1/4=108] B,2 | E3 G B3 B | B2 cd [Ge]2 [GB]2 | [_Ac]2 [GB]2 G2 E2 | %4
[M:9/8] G2 F- F [B,DF]2- [B,DF] B,2 |[M:4/4] E3 G B3 G | G2 A=B [CEc]2 e2 | d2 B2 F2 d2 | %8
[M:7/8] c3 [DB] [DB]3 |[M:1/4] B,2 |[M:4/4] E2 G2 B3 B |[M:19/16] B-<Bcde/-e/-e/-e/-e/-e-<ee | %12
[M:4/4] e2 G2 c2 B2 |[M:7/8] z2 [DF]2 z z2 |] %14
V:2
 z4 z2 B,,2 | E,3 G, B,3 B, | [B,D_A]2 [B,A]2[K:bass] [E,B,]2 [E,E]2 | %3
 [E,E]2 [E,E]2 [E,B,E]2 [E,G,]2 |[M:9/8] [F,A,E]2 [F,A,E]- [F,A,E] B,,2- B,, B,,2 | %5
[M:4/4] E,3 G, B,3 G, | z2 .C2[K:bass] z4 | [F,B,F]2 [F,B,D]2 [F,B,D]2 [F,B,F]2 | %8
[M:7/8] [F,A,E]3 [B,,B,] [B,,B,]3 |[M:1/4] B,,2 |[M:4/4] E,2 G,2 B,3 B, | %11
[M:19/16] B,-<B,[K:treble]CD[CEc]/-[CEc]/-[CEc]/-[CEc]/-[CEc]/-[CEc]-<[CEc][A,C^F] | %12
[M:4/4] [B,G]2 [B,E]2 [B,D_A]2 [B,EG]2 |[M:7/8] z2[K:bass] B, z z z2 |] %14
V:3
 x8 | x8 | x4[K:bass] x4 | x8 |[M:9/8] x9 |[M:4/4] x8 | %6
 [G,=B,F]2 [G,F]-[G,DF][K:bass] C,2 [F,A,F]2 | x8 |[M:7/8] x7 |[M:1/4] x2 |[M:4/4] x8 | %11
[M:19/16] x2[K:treble] x15/2 |[M:4/4] x8 |[M:7/8] [B,DF]2[K:bass] B,,2 [E,G,]3 |] %14
V:4
 x8 | x8 | x8 | x8 |[M:9/8] x9 |[M:4/4] x8 | x8 | x8 |[M:7/8] x7 |[M:1/4] x2 |[M:4/4] x8 | %11
[M:19/16] x19/2 |[M:4/4] x8 |[M:7/8] _A2 z _A, E3 |] %14

